X: 22
T: Irish Line Dance
O: Ireland
F: http://www.youtube.com/watch?v=jybBe47Eh6c
N: Medley of The Flowing Bowl/ Maire Breathnach's #1
N: The Doon/ The Mason's Men
T:The Flowing Bowl
M:4/4
L:1/8
F:http://blackrosetheband.googlepages.com/ABCTUNES.ABC May 2009
K:D
Q:1/4=240
|"A"gfed cAAB|(3cBA dc cAAf|gfed cAAA|fage "D"d2 ef|"A"gfed cAAB|(3cBAdc cAAf|gfed cAAA|fage "D"d2 (3ABc|
d2 fd adfd|d2 fa "G"gece|"D"d2 fd adfd|"G"gfge "A"cABc|"D"d2 fd adfd|d2
fa "G"gece|"D"fefd "G"g2 ge|"A"fage "D"d2 ef:|
T:Maire Breathnach's #1
M:4/4
L:1/8
F:http://blackrosetheband.googlepages.com/ABCTUNES.ABC May 2009
K:Am
|:AB|"Am"c2 Bc AGED|"G"CDEF GABd|"Am"c2 Bc AGE^F|"G"GEDC A,2 AB|"Am"c2 Bc AGED|CDEF GABc|"G"dB (3BBB BcBA|"Em"GEDC "Am"A,2:||
|:K:A"A"c3 B ABcd|eAce =g3 f|"G"eaaa a=gea|"D"=gedB BAAB|"A"c3 B ABcd|eAce =g3 a|"G"ba=gb agea|"D"=gedB BAAB:|
T:The Doon
M:4/4
L:1/8
F:http://blackrosetheband.googlepages.com/ABCTUNES.ABC May 2009
K:D
|:"D drone"DFAF BFAF|DFAF GFEF|DFAF BAFA|1 (3Bcd ec dBAF:|2 (3Bcd ec d2AB|
|d2 fd Adfd|ddfd BAFA|dd (3ddd Adfg|afed BAFA|Adfd Adfd|Adfd edef|gfec dcBA|(3Bcd ec dBAF||
T:The Mason's Men
M:4/4
L:1/8
F:http://blackrosetheband.googlepages.com/ABCTUNES.ABC May 2009
C:John Williams
S:Solas
K:D
"G"dGBd "A"cdeg|"D"a2 ge fdec|"G"dGBd "A"cdeg|"D"fdec dgfe|"G"dGBd "A"cd
eg|"D"a2 ge fdec|"G"dGBd cdeg|"A"fffe d2eg|
|:"Bm"fBBB FBdB|"A"ceae fceg|"G"fBBB FBdB|1"A"cBcd B3 e:|2 "A"cBcd B3 c ||
W:
W: transcriptions found in http://blackrosetheband.googlepages.com/ABCTUNES.ABC
W: also see http://bardicrose.com/



